X: 1
T: Eklundapolska #1
T: Myggbiten
C: Viksta Lasse (Leonard Larsson)
O: efter Nylandspojkarna
R: Bingsj\"opolska, 16th-note polska
Z: John Chambers <jc@trillian.mit.edu>
M: 3/4
L: 1/16
K: Dm
|: "Dm"[D2A2]a2 ~a2^ga baga | [D2A2]a2 ~a2^ga baga \
| a2ag fefg a2f2 | "A"~f2ed ^cdec A4 |
|  "Dm"[D2A2]a2 ~a2^ga baga | [D2A2]a2 ~a2^ga baga \
| a2ag fefg afed |"A7"^cdec "Dm"d8 :|
|: "Dm"[A2a2]ab a2ab a2ab | "Gm"[B2g2]gb g2gb g2gb \
| "Dm"[A2f2]fa f2fa f2fa | "A7"~f2ed ^cdec A4 :|
|: "Dm"[D2A2]d2 "A7"^cdec "Dm"d4 | [D2A2]f2  "A7"efge "Dm"f4 \
| "Dm"[D2A2]d2 "A7"^cdec "Dm"d4 | "Dm"A2BA "Gm"G2BG "A7"A4 \
| "Dm"A2BA "Gm"G2BG "Dm"F2AF | "A7"ED^CE "Dm"D8 :|

%%sep 1 1 500

